packages/nouns-webapp/src/assets/icons/Link.svg

<svg width="16" height="16" viewBox="0 0 16 16" fill="none" xmlns="http://www.w3.org/2000/svg">
<path d="M8.90802 2.66666C8.71241 2.66666 8.52481 2.74436 8.38649 2.88268C8.24817 3.021 8.17047 3.2086 8.17047 3.40421C8.17047 3.59982 8.24817 3.78742 8.38649 3.92574C8.52481 4.06406 8.71241 4.14177 8.90802 4.14177H10.8153L6.99442 7.96269C6.92397 8.03073 6.86778 8.11211 6.82913 8.2021C6.79048 8.29208 6.77013 8.38886 6.76928 8.48679C6.76843 8.58473 6.78709 8.68185 6.82417 8.77249C6.86126 8.86313 6.91602 8.94548 6.98528 9.01473C7.05453 9.08398 7.13688 9.13875 7.22752 9.17583C7.31816 9.21292 7.41528 9.23158 7.51322 9.23073C7.61115 9.22988 7.70793 9.20953 7.79791 9.17088C7.8879 9.13222 7.96928 9.07603 8.03732 9.00559L11.8582 5.18467V7.09199C11.8582 7.2876 11.936 7.4752 12.0743 7.61352C12.2126 7.75184 12.4002 7.82954 12.5958 7.82954C12.7914 7.82954 12.979 7.75184 13.1173 7.61352C13.2556 7.4752 13.3334 7.2876 13.3334 7.09199V3.40421C13.3334 3.2086 13.2556 3.021 13.1173 2.88268C12.979 2.74436 12.7914 2.66666 12.5958 2.66666H8.90802Z" fill="#5f5f5f"/>
<path d="M4.17096 4.30768C3.772 4.30768 3.38938 4.46617 3.10728 4.74827C2.82517 5.03038 2.66669 5.413 2.66669 5.81196V11.829C2.66669 12.228 2.82517 12.6106 3.10728 12.8927C3.38938 13.1748 3.772 13.3333 4.17096 13.3333H10.1881C10.587 13.3333 10.9696 13.1748 11.2517 12.8927C11.5338 12.6106 11.6923 12.228 11.6923 11.829V9.57264C11.6923 9.37316 11.6131 9.18185 11.472 9.0408C11.331 8.89974 11.1397 8.8205 10.9402 8.8205C10.7407 8.8205 10.5494 8.89974 10.4083 9.0408C10.2673 9.18185 10.1881 9.37316 10.1881 9.57264V11.829H4.17096V5.81196H6.42737C6.62685 5.81196 6.81816 5.73271 6.95921 5.59166C7.10026 5.45061 7.17951 5.2593 7.17951 5.05982C7.17951 4.86034 7.10026 4.66903 6.95921 4.52798C6.81816 4.38692 6.62685 4.30768 6.42737 4.30768H4.17096Z" fill="#5f5f5f"/>
</svg>

<svg xmlns="http://www.w3.org/2000/svg" width="16" height="16" fill="none">
    <path fill="#5f5f5f" d="M8.908 2.667a.738.738 0 1 0 0 1.475h1.907l-3.82 3.82a.737.737 0 1 0 1.042 1.044l3.821-3.821v1.907a.738.738 0 0 0 1.475 0V3.404a.74.74 0 0 0-.737-.737z"/>
    <path fill="#5f5f5f" d="M4.171 4.308a1.504 1.504 0 0 0-1.504 1.504v6.017a1.504 1.504 0 0 0 1.504 1.504h6.017a1.504 1.504 0 0 0 1.504-1.504V9.573a.752.752 0 1 0-1.504 0v2.256H4.171V5.812h2.256a.752.752 0 0 0 0-1.504z"/>
</svg>
